X:1
T:Title
%%score { ( 1 3 ) | ( 2 4 ) }
L:1/8
M:4/4
K:Bb
V:1 treble nm="Grand Piano"
V:3 treble 
V:2 bass 
V:4 bass 
V:1
 z4 z2[Q:1/4=100] [DF]>[DF] | [Fd]>[Fd] [Ec]>[Ec] [DB]2 [B,D]>[EG] | F2- [EF-]>[EF-] [DF]2 F>F | %3
 e>e d>d c2 F>c | B2- [EB-]>[EB-] [DB]2 [DF]>[DF] | [Fd]>[Fd] [Fd]>[Fd] c2 F>F | c>c c>c B2 B>B | %7
 c>c [Fd]>[Fd] [Ge]2 [CFA]>[CEA] |[M:3/4] B2- [GB-]>[GB-] [FB]2 |[M:1/4] F>d |[M:4/4] c6 z2 | %11
 B6 z2 | A>A B>A [=EG]2 [FA]>G | F6 z2 | [Fd]>[Fd] [Fd]>[Fd] c2 F>F | c>c c>c B2 B>B | %16
 c>c [Fd]>[Fd] [Ge]2 [CFA]>[CEA] |[M:3/4] B2- [GB-]>[GB-] [FB]2 |] %18
V:2
 z4 z2 [B,,B,]>[B,,B,] | [B,,B,]>[B,,B,] [B,,B,]>[B,,B,] [B,,B,]2 [B,,F,]>[B,,F,] | %2
 [B,,B,]2 [C,A,]>[C,A,] [D,B,]2 [F,A,]>[F,A,] | %3
 [F,CF]>[F,CF] [F,B,F]>[F,B,F] [F,A,E]2 [F,A,E]>[F,A,E] | z2 G,>G, F,2 [B,,B,]>[B,,B,] | %5
 [B,,B,]>[B,,B,] [B,,B,]>[B,,B,] [F,A,E]2 [F,A,E]>[F,A,E] | %6
 [F,A,E]>[F,A,E] [F,A,E]>[F,A,E] [G,B,D]2 [G,B,D]>[G,B,D] | %7
 [E,G,E]>[E,G,E] [D,=B,]>[D,B,] [C,C]2 F,>F, |[M:3/4] z2 E>E D2 |[M:1/4] z2 | %10
[M:4/4] z2 [F,A,]>[F,A,] [F,A,]2 z2 | z2 [B,,B,]>[B,,F,] [B,,F,]2 [F,A,F]>[F,G,F] | %12
 [F,CF]>[F,CF] [F,DF]>[F,CF] [C,B,]2 [C,C]>[C,B,C] | [A,C]2 B,>B, C2 [B,,B,]>[B,,B,] | %14
 [B,,B,]>[B,,B,] [B,,B,]>[B,,B,] [F,A,E]2 [F,A,E]>[F,A,E] | %15
 [F,A,E]>[F,A,E] [F,A,E]>[F,A,E] [G,B,D]2 [G,B,D]>[G,B,D] | %16
 [E,G,E]>[E,G,E] [D,=B,]>[D,B,] [C,C]2 F,>F, |[M:3/4] z2 E>E D2 |] %18
V:3
 x8 | x8 | D2 z2 z4 | x8 | [B,D]2 z2 z4 | x8 | x8 | x8 |[M:3/4] [B,D]2 z2 z2 |[M:1/4] x2 | %10
[M:4/4] z2 E>E E2 F>c | z2 D>D D2 c>B | x8 | z2 D>D E2 [DF]>[DF] | x8 | x8 | x8 | %17
[M:3/4] [B,D]2 z2 z2 |] %18
V:4
 x8 | x8 | x8 | x8 | B,,6 z2 | x8 | x8 | x8 |[M:3/4] B,,6 |[M:1/4] x2 |[M:4/4] x8 | x8 | x8 | %13
 F,6 z2 | x8 | x8 | x8 |[M:3/4] B,,6 |] %18

